svg/u1f3d1.svg

<svg viewBox="0 0 128 128" xmlns="http://www.w3.org/2000/svg">
  <path d="M88.61,88.38c-8.4-0.24-18.14,5.66-18.1,18.23c0.03,10.51,8.41,17.15,17.86,17.08 c9.1-0.07,17.28-6.56,17.6-16.78C106.32,95.54,97.95,88.65,88.61,88.38z" fill="#D8CDC9"/>
  <path d="M80.98,113.02c4.22,1.99,11.65,1.74,14.9-3.99c3.81-6.7,0.46-14.43-4.46-16.07 c-4.84-1.62-11.48-0.92-14.61,4.23C74.73,100.61,73.61,109.54,80.98,113.02z" fill="#EAEAEA"/>
  <path d="M77.92,109.31c-2.45,0.72-5.88-8.59-0.33-14.34c5.98-6.2,13.66-3.81,13.84-1.31 c0.34,4.57-5.78,1.01-9.27,5.24C78.48,103.34,81.81,108.17,77.92,109.31z" fill="#FFFFFF"/>
  <path d="M85.42,50.75c-0.07-0.2-5.72-2.44-5.99-2.44S34.83,98.29,34.83,98.29l11.16,10.9L87.2,52.53 L85.42,50.75z" fill="#1F87FD"/>
  <path d="M85.86,52.02c0,0-9.43,13.11-16.47,22.75S51.13,98.89,51.13,98.89l-5.13,10.3l1.67,1.23 c0,0,4.73-6.14,10.54-14.13c5.1-7,11.08-15.58,14.62-20.61c4.13-5.86,19.45-28.46,19.45-28.46L85.86,52.02z" fill="#004FAD"/>
  <path d="M47.22,96.61" fill="none" stroke="#004FAD" stroke-miterlimit="10"/>
  <path d="M79.4,48.33l29.36-35.8c0,0-0.63-2.12-0.55-3.06c0.08-0.94,2.92-5.62,5.18-5.89 c3.3-0.39,9.94,4.56,10.21,7.85c0.16,1.96-3.14,5.97-4.55,6.2c-0.86,0.14-2.75-0.16-2.75-0.16L87.1,54.77L79.4,48.33z" fill="#5F6165"/>
  <path d="M35.44,97.55" fill="none" stroke="#5F6165" stroke-miterlimit="10"/>
  <path d="M17.39,95L21,88.2c0,0,3.84,2.14,3.99,6.31c0.09,2.44-1.22,5.99-0.05,7.68 c1.51,2.18,4.63,1.87,4.63,1.87l15.64,2.74l3.08,3.08c0,0-5.66,9.07-12.88,12.43c-5.93,2.76-14.1,2.48-19.81-1.38 c-4.43-2.99-5.45-5.25-5.45-5.25L17.39,95z" fill="#EA8D37"/>
  <path d="M36.03,96.93c0,0-4.7,5.04-5.82,6.22s-4.7,3.75-7.34-0.39c-1.96-3.08,0.95-5.94,0.28-10.64 c-0.67-4.7-5.1-5.68-7.73-5.49c-2.35,0.17-9.79,1.47-10.36,14.06c-0.39,8.74,3.92,14.39,6.83,16.91c2.77,2.39,11.27,5.99,20.5,1.71 c8.09-3.75,13.82-13.18,13.82-13.18L36.03,96.93z" fill="#FFA828"/>
  <polygon points="39.29,93.23 35.44,97.53 48.29,109.85 52.94,103.46 " fill="#605F66"/>
  <polygon points="43.36,88.65 39.27,93.26 52.23,104.48 55.85,99.57 " fill="#E2E0E4"/>
  <polygon points="79.4,48.33 83.13,43.78 90.71,50.16 87.16,54.79 " fill="#E2E0E4"/>
  <path d="M86.17,43.44c0.01,0.72,0.96,1.85,3.58,0.95c2.37-0.82,1.68-2.63,2.8-3.88 c1.12-1.25,2.31-0.89,3.6-2.79c1.29-1.9,1-3.28,2.2-4.68c1.5-1.76,2.08-0.59,3.43-2.32c1.21-1.55,0.35-2.44,1.4-3.81 c1.3-1.7,1.69-0.39,3.38-2.27c1.64-1.81,0.73-2.54,1.77-4.18c0.73-1.15,2.09-1.24,3-2.35c1.6-1.94,2.03-2.91,0.92-3.74 c-1.36-1.01-2.16,0.86-3.06,1.77c-1.29,1.29-2.02,0.98-3.12,2.13c-1.69,1.76-0.67,2.7-1.92,4.26c-1.25,1.55-2.29,0.73-3.54,2.29 c-1.25,1.55-0.78,3.02-1.68,3.92c-0.91,0.91-1.64,0.6-2.89,1.94c-1.74,1.86-0.93,3.45-2.3,5.14c-1.12,1.38-2.31,0.81-3.52,2.19 c-1.21,1.38-1,2.79-1.55,3.28C87.59,42.23,86.16,41.86,86.17,43.44z" fill="#848582"/>
</svg>

<svg viewBox="0 0 128 128" xmlns="http://www.w3.org/2000/svg">
  <defs/>
  <path d="M88.61,88.38 C80.21,88.14 70.47,94.04 70.51,106.61 C70.54,117.12 78.92,123.76 88.37,123.69 C97.47,123.62 105.65,117.13 105.97,106.91 C106.32,95.54 97.95,88.65 88.61,88.38 Z" fill="#D8CDC9"/>
  <path d="M80.98,113.02 C85.2,115.01 92.63,114.76 95.88,109.03 C99.69,102.33 96.34,94.6 91.42,92.96 C86.58,91.34 79.94,92.04 76.81,97.19 C74.73,100.61 73.61,109.54 80.98,113.02 Z" fill="#EAEAEA"/>
  <path d="M77.92,109.31 C75.47,110.03 72.04,100.72 77.59,94.97 C83.57,88.77 91.25,91.16 91.43,93.66 C91.77,98.23 85.65,94.67 82.16,98.9 C78.48,103.34 81.81,108.17 77.92,109.31 Z" fill="#FFFFFF"/>
  <path d="M85.42,50.75 C85.35,50.55 79.7,48.31 79.43,48.31 C79.16,48.31 34.83,98.29 34.83,98.29 L45.99,109.19 L87.2,52.53 L85.42,50.75 Z" fill="#1F87FD"/>
  <path d="M85.86,52.02 C85.86,52.02 76.43,65.13 69.39,74.77 C62.35,84.41 51.13,98.89 51.13,98.89 L46,109.19 L47.67,110.42 C47.67,110.42 52.4,104.28 58.21,96.29 C63.31,89.29 69.29,80.71 72.83,75.68 C76.96,69.82 92.28,47.22 92.28,47.22 L85.86,52.02 Z" fill="#004FAD"/>
  <path d="M79.4,48.33 L108.76,12.53 C108.76,12.53 108.13,10.41 108.21,9.47 C108.29,8.53 111.13,3.85 113.39,3.58 C116.69,3.19 123.33,8.14 123.6,11.43 C123.76,13.39 120.46,17.4 119.05,17.63 C118.19,17.77 116.3,17.47 116.3,17.47 L87.1,54.77 L79.4,48.33 Z" fill="#5F6165"/>
  <path d="M17.39,95 L21,88.2 C21,88.2 24.84,90.34 24.99,94.51 C25.08,96.95 23.77,100.5 24.94,102.19 C26.45,104.37 29.57,104.06 29.57,104.06 L45.21,106.8 L48.29,109.88 C48.29,109.88 42.63,118.95 35.41,122.31 C29.48,125.07 21.31,124.79 15.6,120.93 C11.17,117.94 10.15,115.68 10.15,115.68 L17.39,95 Z" fill="#EA8D37"/>
  <path d="M36.03,96.93 C36.03,96.93 31.33,101.97 30.21,103.15 C29.09,104.33 25.51,106.9 22.87,102.76 C20.91,99.68 23.82,96.82 23.15,92.12 C22.48,87.42 18.05,86.44 15.42,86.63 C13.07,86.8 5.63,88.1 5.06,100.69 C4.67,109.43 8.98,115.08 11.89,117.6 C14.66,119.99 23.16,123.59 32.39,119.31 C40.48,115.56 46.21,106.13 46.21,106.13 L36.03,96.93 Z" fill="#FFA828"/>
  <path d="M39.29,93.23 L35.44,97.53 L48.29,109.85 L52.94,103.46 Z" fill="#605F66"/>
  <path d="M43.36,88.65 L39.27,93.26 L52.23,104.48 L55.85,99.57 Z" fill="#E2E0E4"/>
  <path d="M79.4,48.33 L83.13,43.78 L90.71,50.16 L87.16,54.79 Z" fill="#E2E0E4"/>
  <path d="M86.17,43.44 C86.18,44.16 87.13,45.29 89.75,44.39 C92.12,43.57 91.43,41.76 92.55,40.51 C93.67,39.26 94.86,39.62 96.15,37.72 C97.44,35.82 97.15,34.44 98.35,33.04 C99.85,31.28 100.43,32.45 101.78,30.72 C102.99,29.17 102.13,28.28 103.18,26.91 C104.48,25.21 104.87,26.52 106.56,24.64 C108.2,22.83 107.29,22.1 108.33,20.46 C109.06,19.31 110.42,19.22 111.33,18.11 C112.93,16.17 113.36,15.2 112.25,14.37 C110.89,13.36 110.09,15.23 109.19,16.14 C107.9,17.43 107.17,17.12 106.07,18.27 C104.38,20.03 105.4,20.97 104.15,22.53 C102.9,24.08 101.86,23.26 100.61,24.82 C99.36,26.37 99.83,27.84 98.93,28.74 C98.02,29.65 97.29,29.34 96.04,30.68 C94.3,32.54 95.11,34.13 93.74,35.82 C92.62,37.2 91.43,36.63 90.22,38.01 C89.01,39.39 89.22,40.8 88.67,41.29 C87.59,42.23 86.16,41.86 86.17,43.44 Z" fill="#848582"/>
</svg>
